src/assets/img/icons/menu2.svg

<svg width="19" height="20" viewBox="0 0 19 20" fill="none" xmlns="http://www.w3.org/2000/svg">
<path d="M0 15.752H10.8638C11.2143 14.4945 12.3687 13.5874 13.688 13.5874C15.0073 13.5874 16.1824 14.4945 16.5121 15.752H18.1819V17.298H16.5121C16.1617 18.5555 15.0073 19.4626 13.688 19.4626C12.3687 19.4626 11.1936 18.5555 10.8638 17.298H0V15.752ZM13.688 14.9687C12.8428 14.9687 12.1419 15.6696 12.1419 16.5148C12.1419 17.36 12.8428 18.0609 13.688 18.0609C14.5333 18.0609 15.2341 17.36 15.2341 16.5148C15.2341 15.6696 14.5333 14.9687 13.688 14.9687Z" fill="#ECFD6C"/>
<path d="M0.000147166 9.21681H1.25763C1.60806 7.95932 2.76245 7.05225 4.08178 7.05225C5.40111 7.05225 6.57621 7.95932 6.90593 9.21681H18.1821V10.7629H6.90593C6.5555 12.0204 5.40111 12.9275 4.08178 12.9275C2.76245 12.9275 1.58735 12.0204 1.25763 10.7629H0L0.000147166 9.21681ZM4.08182 8.45411C3.23659 8.45411 2.53573 9.15496 2.53573 10.0002C2.53573 10.8454 3.23659 11.5463 4.08182 11.5463C4.92705 11.5463 5.62791 10.8454 5.62791 10.0002C5.62791 9.15496 4.9269 8.45411 4.08182 8.45411Z" fill="#ECFD6C"/>
<path d="M0 2.70265H8.34887C8.67874 1.44516 9.83312 0.538086 11.173 0.538086C12.4924 0.538086 13.6675 1.44516 13.9972 2.70265H18.1819V4.24873H13.9972C13.6467 5.50622 12.4924 6.41329 11.173 6.41329C9.85369 6.41329 8.67859 5.50622 8.34887 4.24873H0V2.70265ZM11.2143 1.9398C10.3691 1.9398 9.6682 2.64065 9.6682 3.48589C9.6682 4.33112 10.3691 5.03197 11.2143 5.03197C12.0595 5.03197 12.7604 4.33112 12.7604 3.48589C12.7604 2.64065 12.0595 1.9398 11.2143 1.9398Z" fill="#ECFD6C"/>
</svg>

<svg xmlns="http://www.w3.org/2000/svg" fill="none" viewBox="0 0 19 20">
  <path fill="#ECFD6C" d="M0 15.75h10.86a2.96 2.96 0 0 1 2.83-2.16c1.32 0 2.5.9 2.82 2.16h1.67v1.55h-1.67a2.96 2.96 0 0 1-2.82 2.16c-1.32 0-2.5-.9-2.83-2.16H0v-1.55Zm13.69-.78c-.85 0-1.55.7-1.55 1.54 0 .85.7 1.55 1.55 1.55.84 0 1.54-.7 1.54-1.55 0-.84-.7-1.54-1.54-1.54ZM0 9.22h1.26a2.96 2.96 0 0 1 2.82-2.17c1.32 0 2.5.9 2.83 2.17h11.27v1.54H6.91a2.96 2.96 0 0 1-2.83 2.17c-1.32 0-2.5-.91-2.82-2.17H0V9.22Zm4.08-.77c-.84 0-1.54.7-1.54 1.55 0 .85.7 1.55 1.54 1.55.85 0 1.55-.7 1.55-1.55 0-.85-.7-1.55-1.55-1.55ZM0 2.7h8.35a2.92 2.92 0 0 1 5.65 0h4.18v1.55H14a2.96 2.96 0 0 1-2.83 2.16c-1.32 0-2.5-.9-2.82-2.16H0V2.7Zm11.21-.76c-.84 0-1.54.7-1.54 1.55 0 .84.7 1.54 1.54 1.54.85 0 1.55-.7 1.55-1.54 0-.85-.7-1.55-1.55-1.55Z"/>
</svg>
